svg/system/brush_3_line.svg

<?xml version="1.0" encoding="UTF-8"?>
<svg width="24px" height="24px" viewBox="0 0 24 24" version="1.1" xmlns="http://www.w3.org/2000/svg" xmlns:xlink="http://www.w3.org/1999/xlink">
    <title>brush_3_line</title>
    <g id="Icon" stroke="none" stroke-width="1" fill="none" fill-rule="evenodd">
        <g id="System" transform="translate(-96.000000, -480.000000)">
            <g id="brush_3_line" transform="translate(96.000000, 480.000000)">
                <path d="M24,0 L24,24 L0,24 L0,0 L24,0 Z M12.5935,23.2578 L12.5819,23.2595 L12.5109,23.295 L12.4919,23.2987 L12.4767,23.295 L12.4057,23.2595 C12.3958,23.2564 12.387,23.259 12.3821,23.2649 L12.378,23.2758 L12.3609,23.7031 L12.3659,23.7235 L12.3769,23.7357 L12.4805,23.8097 L12.4953,23.8136 L12.5071,23.8097 L12.6107,23.7357 L12.6233,23.7197 L12.6267,23.7031 L12.6096,23.2758 C12.6076,23.2657 12.601,23.2593 12.5935,23.2578 Z M12.8584,23.1453 L12.8445,23.1473 L12.6598,23.2397 L12.6499,23.2499 L12.6472,23.2611 L12.6651,23.6906 L12.6699,23.7034 L12.6784,23.7105 L12.8793,23.8032 C12.8914,23.8069 12.9022,23.803 12.9078,23.7952 L12.9118,23.7812 L12.8777,23.1665 C12.8753,23.1546 12.8674,23.147 12.8584,23.1453 Z M12.143,23.1473 C12.1332,23.1424 12.1222,23.1453 12.1156,23.1526 L12.1099,23.1665 L12.0758,23.7812 C12.0751,23.7927 12.0828,23.8019 12.0926,23.8046 L12.1083,23.8032 L12.3092,23.7105 L12.3186,23.7024 L12.3225,23.6906 L12.3404,23.2611 L12.3372,23.2485 L12.3278,23.2397 L12.143,23.1473 Z" id="MingCute" fill-rule="nonzero"></path>
                <path d="M20.8943,20.4479 C20.7249,20.7865 20.3787,21.0004 20,21.0004 L5.5,21.0004 C4.86783,21.0004 4.56815,20.4367 4.29905,19.9546 C4.08536,19.5718 3.81193,19.0223 3.56181,18.3387 C3.06276,16.9748 2.64541,15.0455 3.01362,12.8361 C3.30996,11.0578 3.9306,9.71037 4.44248,8.84297 C5.09686,7.73409 6.37323,7.42215 7.43349,7.70625 L9.61988,8.29209 L10.6552,4.42839 C11.084,2.82799 12.729,1.87824 14.3294,2.30707 C15.9298,2.73589 16.8795,4.3809 16.4507,5.9813 L15.4154,9.84501 L16.7725,10.2086 C18.4273,10.652 19.2832,12.3277 19.0505,13.8642 C18.9401,14.5935 18.8969,15.3106 18.9858,15.8324 C19.0999,16.5018 19.5173,17.3688 19.9712,18.1376 C20.3517,18.7822 20.7117,19.2803 20.7866,19.3822 C21.014,19.6903 21.0681,20.1006 20.8943,20.4479 Z M13.8118,4.23892 C13.2783,4.09598 12.73,4.41256 12.587,4.94603 L11.2929,9.77566 C11.15,10.3091 10.6016,10.6257 10.0682,10.4828 L6.91585,9.6381 C6.53283,9.53547 6.26993,9.68149 6.16492,9.85943 C5.94202,10.2371 5.68795,10.7374 5.46234,11.3535 L16.9725,14.4066 C16.9972,14.1133 17.0331,13.8288 17.0731,13.5647 C17.1777,12.8739 16.776,12.2801 16.2548,12.1405 L13.9319,11.518 C13.3984,11.3751 13.0818,10.8268 13.2248,10.2933 L14.5189,5.46366 C14.6618,4.9302 14.3452,4.38186 13.8118,4.23892 Z M17.0843,16.5054 L4.96636,13.2911 C4.70625,15.0155 5.03294,16.5389 5.44003,17.6515 C5.64793,18.2197 5.87404,18.6728 6.04538,18.9798 L6.05697,19.0004 L7.75755,19.0004 C7.38041,18.2082 6.99396,17.134 6.98607,16.0072 C6.9822,15.4549 7.42677,15.0041 7.97904,15.0002 C8.53131,14.9964 8.98215,15.4409 8.98602,15.9932 C8.99146,16.7691 9.29319,17.6071 9.6419,18.3013 C9.78042,18.5771 9.91894,18.8156 10.0337,19.0004 L18.1591,19.0004 C17.7562,18.3014 17.2997,17.3907 17.0843,16.5054 Z" id="形状" fill="#09244B"></path>
            </g>
        </g>
    </g>
</svg>

<svg xmlns="http://www.w3.org/2000/svg" width="24" height="24"><g fill="none" fill-rule="evenodd"><path d="M24 0v24H0V0h24ZM12.594 23.258l-.012.002-.071.035-.02.004-.014-.004-.071-.036c-.01-.003-.019 0-.024.006l-.004.01-.017.428.005.02.01.013.104.074.015.004.012-.004.104-.074.012-.016.004-.017-.017-.427c-.002-.01-.009-.017-.016-.018Zm.264-.113-.014.002-.184.093-.01.01-.003.011.018.43.005.012.008.008.201.092c.012.004.023 0 .029-.008l.004-.014-.034-.614c-.003-.012-.01-.02-.02-.022Zm-.715.002a.023.023 0 0 0-.027.006l-.006.014-.034.614c0 .012.007.02.017.024l.015-.002.201-.093.01-.008.003-.011.018-.43-.003-.012-.01-.01-.184-.092Z"/><path fill="#09244B" d="M20.894 20.448A1 1 0 0 1 20 21H5.5c-.632 0-.932-.563-1.2-1.045a11.313 11.313 0 0 1-.738-1.616c-.5-1.364-.917-3.293-.548-5.503a11.633 11.633 0 0 1 1.428-3.993c.655-1.109 1.931-1.42 2.991-1.137l2.187.586 1.035-3.864a3 3 0 1 1 5.796 1.553l-1.036 3.864 1.358.364c1.654.443 2.51 2.119 2.278 3.655-.11.73-.154 1.447-.065 1.968.114.67.531 1.537.985 2.306.38.644.74 1.142.816 1.244.227.308.281.719.107 1.066Zm-7.082-16.21a1 1 0 0 0-1.225.708l-1.294 4.83a1 1 0 0 1-1.225.707l-3.152-.845c-.383-.103-.646.043-.751.221a9.107 9.107 0 0 0-.703 1.495l11.51 3.053c.025-.294.061-.578.101-.842.105-.691-.297-1.285-.818-1.424l-2.323-.623a1 1 0 0 1-.707-1.225l1.294-4.83a1 1 0 0 0-.707-1.224Zm3.272 12.267L4.966 13.291c-.26 1.724.067 3.248.474 4.36.208.569.434 1.022.605 1.329l.012.02h1.7c-.377-.792-.763-1.866-.77-2.993a1 1 0 1 1 1.999-.014c.005.776.307 1.614.656 2.308.138.276.277.515.392.7h8.125c-.403-.7-.86-1.61-1.075-2.496Z"/></g></svg>
